X:1
T:Title
%%score { ( 1 2 ) | ( 3 4 ) }
L:1/8
Q:1/4=90
M:4/4
K:Eb
V:1 treble nm="Grand Piano"
V:2 treble 
V:3 bass 
V:4 bass 
V:1
 z2 [DF]2 z4 | [DB]2 [FA]2 AG G2 | e2 dc B2 G2 | [EG]2 [EF]2 [DF]4 | z2 [DF]2 z4 | %5
 [DB]2 [FA]2 AG G2 | [Ge]2 [Bd]c .[EGB]2 E-[EF] | [B,EG]2 .[B,DF]2 [G,E]4 |] %8
V:2
 [EG]2 z A, FE E2 | x8 | x8 | x8 | [EG]2 z A, FE E2 | x8 | z4 z2 .C2 | x8 |] %8
V:3
 [E,B,]2 .[B,,B,]2 [C,G,C]2 [C,G,C]2 | z4 .C2 z2 | z2 .B,2 z4 | [C,C]2 [F,=A,]2 [B,,B,]4 | %4
 [E,B,]2 .[B,,B,]2 [C,G,C]2 [C,G,C]2 | z4 .C2 z2 | [E,B,]2 z A z B, z =A, | B,,2 z A, E,4 |] %8
V:4
 x8 | [B,,B,]2 [D,B,]2 [E,E]-[E,B,E] [E,B,E]2 | [E,G,E]2 [E,E]-[E,A,E] [E,G,E]2 [E,B,E]2 | x8 | %4
 x8 | [B,,B,]2 [D,B,]2 [E,E]-[E,B,E] [E,B,E]2 | z2 [E,E]2 E,2 C,2 | z2 B,,2 z4 |] %8

